!!!OTL: Zhi shoujin
!!!ARE: Asia, China,ÿShaanxi, Hancheng
!! I, 72
!!!SCT: C1406
!!!YEM: Copyright 1995, estate of Helmut Schaffrath.
**kern
*ICvox
*Ivox
*M2/4
*k[]
*C:
{16dd
16ee
16dd
16cc
16dd
16a
8dd
=1
8dd]
16ee
16dd
16cc
16a
8dd
=2
16g
8g
16a
8dd
8dd
=3
16cc
16a
16cc
16a
4f}
=4
{8.g
16a
8dd
16cc
16dd
=5
8ff
16a
16g
8f
16f
16g
=6
16cc
16a
16cc
16a
16a
16g
16f
16g
=7
4d
8d
8r}
=8
{16ff
16a
16a
16g
16f
16d
8d
=9
8d]
8g
8a
8dd
=10
16ee
16dd
16cc
16a
16a
16g
16f
16g
=11
8a
8g
4d}
=12
{8.g
16a
8dd
16cc
16dd
=13
8ff
16a
16g
8.f
16g
=14
16cc
16a
16cc
16a
16a
16g
16f
16g
=15
4d
8d
8r}
==
!!!AGN: Wuge, Yangge diao
!!!ONB: ESAC (Essen Associative Code) Database: HUANG
!!!AMT: simple duple
!!!AIN: vox
!!!EED: Helmut Schaffrath
!!!EEV: 1.0
*-
!!!OTL: Zaiyang han ge
!!!ARE: Asia, China,ÿHunan, Huarong
!! I, 545
!!!SCT: C1469
!!!YEM: Copyright 1995, estate of Helmut Schaffrath.
**kern
*ICvox
*Ivox
!! Irregular meter.
*MX
*k[]
*C:
{4g
4cc
8dd
8cc
4cc
8dd
8cc
=1
2gg}
=2
{8gg
16gg
16ee
8dd
4ee
8dd
=3
8cc
8dd
2ee
=4
8gg
16ee
16dd
16cc
16ee
4.dd
=5
4cc
8cc
8a
2g}
{4g
4cc
4cc
8dd
8cc
2gg}
{8gg
16gg
16ee
8dd
4ee
8dd
=6
16ee
16gg
16cc
16dd
2ee
=7
8gg
16ee
16dd
16cc
16ee
[8dd
2dd]
=8
4cc
8cc
8a
2g}
{2a
2dd
=9
4cc
8cc
8a
2gg}
{8gg
16gg
16ee
4dd
2ee
=10
16cc
16dd
4.ee
16dd
16ee
8gg
8gg
4ee
8dd
=11
4cc
8cc
8a
2g}
==
!!!AGN: Shange, Tiange. Nongtian laodong chang
!!!ONB: ESAC (Essen Associative Code) Database: HUANG
!!!AMT: irregular
!!!AIN: vox
!!!EED: Helmut Schaffrath
!!!EEV: 1.0
*-
